!!!!SEGMENT: pl-wtm--2342-fp-8092_rozycki-ludomir--fantaisie-op-11.krn
!!!cenid: 19xx:150
!!!COM: Różycki, Ludomir
!!!COM-rismID: pe50045573
!!!CDT: 1883-1953
!!!CNT: Polish
!!!OTL: Fantaisie op. 11
!!!PDT: 1924
!!!AGN: Secular; Fantasy
!!!YEC: Copyright 2022 Narodowy Instytut Fryderyka Chopina (https://polishscores.org)
!!!YEM: License CC-BY-4.0 (https://creativecommons.org/licenses/by/4.0)
!!!SMS-siglum: PL-Wtm
!!!SMS-shelfmark: 2342 fp 8092
!!!SMS-variant:
!!!SMS-altvar:
!!!SMS-shelfwork: W
!!!NIFC-rismSourceID: 1001220549
!!!NIFC-rismChildID: 1001220549
!!!NIFC-islandoraID: pl-wtm:88981
!!!URL-pdf-islandora: https://repozytorium.nifc.pl/islandora/object/pl-wtm%3A88981/datastream/PDF/view
!!!URL-scan: https://polish.musicsources.pl/pl/lokalizacje/galeria/druki-muzyczne/19206/2 @EN{Scan on Polish Music Sources Website} @PL{Skany w portalu Dziedzictwo Muzyki Polskiej w otwartym dostępie}
!!!IIIF:
!!!ONB-nifc:
!!!AIN: 1 piano
!!!key: e-
**kern	**fing	**kern	**fing	**dynam
*part1	*part1	*part1	*part1	*part1
*staff2	*	*staff1	*	*
*I"PIANO.	*	*I"PIANO.	*	*
*I'[pf]	*	*I'[pf]	*	*
*ICklav	*	*ICklav	*	*
*Ipiano	*	*Ipiano	*	*
*clefF4	*	*clefG2	*	*
*k[b-e-a-d-g-c-]	*	*k[b-e-a-d-g-c-]	*	*
*e-:	*	*e-:	*	*
*M2/4	*	*M2/4	*	*
=1	=1	=1	=1	=1
!LO:TX:b:i:t=con Ped.	!	!LO:TX:a:B:t=Andantino. [quarter]= 100.	!	!
8r	.	2r	.	pp
4EEE-/ 4BBB- 4EE-	.	.	.	.
[8BBB-/ [8EE- [8BB-	.	.	.	.
=2	=2	=2	=2	=2
8BBB-/] 8EE-] 8BB-]	.	2r	.	.
4EEE-/ 4BBB- 4EE-	.	.	.	.
[8BBB-/ [8EE- [8BB-	.	.	.	.
=3	=3	=3	=3	=3
*	*	*	*below	*
!	!	!LO:TX:b:i:t=cantabile	!	!LO:DY:b
8BBB-\] 8EE-] 8BB-]	.	4E-<~/ 4G-<	3 1	p
4EEE-\ 4BBB- 4EE-	.	.	.	.
.	.	4F<~/ 4A-<	4 2	.
[8BBB-\ [8EE- [8BB-	.	.	.	.
=4	=4	=4	=4	=4
8BBB-\] 8EE-] 8BB-]	.	4G-<~/ 4B-<	3 1	.
4EEE-\ 4BBB- 4EE-	.	.	.	.
.	.	4A-<~/ 4c-<	4 2	.
[8BBB-\ [8EE- [8BB-	.	.	.	.
=5	=5	=5	=5	=5
8BBB-\] 8EE-] 8BB-]	.	4B-<~/ 4d-<	3 1	.
4EEE-\ 4BBB- 4EE-	.	.	.	.
.	.	4c-<~/ 4e-<	4 2	.
[8BBB-\ [8EE- [8BB-	.	.	.	.
!!LO:LB:g=original	!	!	!	!
=6	=6	=6	=6	=6
!LO:TX:t=P:problem: brak ligatur w t. 5, w t. 6 obecne	!	!	!	!
8BBB-\] 8EE-] 8BB-]	.	4F<~/ 4c-< 4e-< 4f<	.	.
4EEE-\ 4BBB- 4EE-	.	.	.	.
.	.	4G-<~/ 4B-< 4e-< 4g-<	.	.
8BBB-\ 8EE- 8BB-	.	.	.	.
=7	=7	=7	=7	=7
!	!	!	!	!LO:HP:t=poco a poco cresceendo
8r	.	(>4A-/ 4c- 4e- 4a-	.	<
4EEE-/ 4AAA- 4EE-	.	.	.	.
.	.	4F/) 4c- 4e- 4f	.	.
[8EE-/ [8AA- [8E-	.	.	.	.
=8	=8	=8	=8	=8
8EE-/] 8AA-] 8E-]	.	(>4B-/ 4f 4a- 4b-	.	.
4EEE-/ 4BBB- 4EE-	.	.	.	.
.	.	4G-/) 4B- 4e- 4g-	.	.
8EE-/ 8BB- 8E-	.	.	.	.
=9	=9	=9	=9	=9
8r	.	(>4c-/ 4e- 4b- 4cc-	.	.
4EEE-/ 4AAA- 4EE-	.	.	.	.
.	.	4A-/) 4c- 4e- 4a-	.	.
[8EE-/ [8AA- [8E-	.	.	.	.
=10	=10	=10	=10	=10
8EE-/] 8AA-] 8E-]	.	(>4e-/ 4a- 4cc- 4ee-	.	.
4EEE-/ 4BBB- 4EE-	.	.	.	.
.	.	4B-/) 4e- 4g- 4b-	.	.
8EE-/ 8BB- 8E-	.	.	.	.
=11	=11	=11	=11	=11
8r	.	(4en/ 4g#X 4bn 4een	.	.
4EEEn/ 4EEn	.	.	.	.
!	!	!LO:TX:b:i:t=sempre	!	!
.	.	4d#X/ 4f#X 4b 4dd#X	.	p
[8BBBn/ [8BBn	.	.	.	.
!!LO:LB:g=original	!	!	!	!
=12	=12	=12	=12	=12
!	!	!LO:TX:b:i:t=legato	!	!
8BBB/] 8BB]	.	4c##X/ 4e#X 4a#X 4cc##X	.	.
4GGGn/ 4GGn	.	.	.	.
.	.	4d#X/ 4f#X 4bn 4dd#X	.	.
[8BBBn/ [8BBn	.	.	.	.
=13	=13	=13	=13	=13
8BBB/] 8BB]	.	4en/ 4g#X 4bn 4een	.	.
4EEn/ 4En	.	.	.	.
.	.	4f#X\ 4an 4dd#X 4ff#X	.	.
[8BBn\ [8Bn	.	.	.	.
=14	=14	=14	=14	=14
8BB\] 8B]	.	4c##X/ 4e#X 4a#X 4cc##X	.	.
4GGn/ 4Gn	.	.	.	.
.	.	4d#X/) 4f#X 4bn 4dd#X	.	.
8BBBn/ 8BBn	.	.	.	.
=15	=15	=15	=15	=15
8r	.	(4g-\ 4b-X 4ee- 4gg-	.	mf >
4EEE-/ 4EE-	.	.	.	.
.	.	4f-X\ 4a- 4cc- 4ff-X	.	.
[8FFF-X/ [8FF-X	.	.	.	.
=16	=16	=16	=16	=16
8FFF-/] 8FF-]	.	4e-/ 4g- 4b- 4ee-	.	.
4GGG-/ 4GG-	.	.	.	.
.	.	4d-/ 4f-X 4a- 4dd-	.	.
[8AAA-/ [8AA-	.	.	.	.
!!LO:LB:g=original	!	!	!	!
=17	=17	=17	=17	=17
8AAA-/] 8AA-]	.	4B-/ 4d- 4g- 4b-	.	.
4BBB-/ 4BB-	.	.	.	.
.	.	4A-/ 4c- 4e- 4a-	.	.
[8CC-/ [8C-	.	.	.	.
=18	=18	=18	=18	=18
8CC-/] 8C-]	.	4G-/ 4B- 4e- 4g-	.	.
4EE-/ 4E-	.	.	.	.
.	.	4A-/ 4c- 4f-X	.	]
8FF-X/ 8F-X	.	.	.	.
=19	=19	=19	=19	=19
!	!	!LO:TX:a:i:t=misterioso	!	!
*ped	*below	*	*	*
4FFn/ 4C- 4Fn	1 3 5	(>[2A-~>/) [2c- [2e-	.	pp <
(12FFF/L	5	.	.	.
12CC-/	3	.	.	.
12FF/J	1	.	.	.
=20	=20	=20	=20	=20
*Xtuplet	*	*	*	*
12FF/L	5	4A-/] 4c-] 4e-]	.	.
12C-/	3	.	.	.
12F/J)	.	.	.	.
*Xped	*	*	*	*
4FF-X/ 4C- 4F-X	1 2 5	4A-~>/) 4c- 4f-X	.	[[
=21	=21	=21	=21	=21
*ped	*	*	*	*
4FFn/ 4C- 4Fn	.	(>[2A-~>/ [2c- [2e-	.	<
(12FFF/L	.	.	.	.
12CC-/	.	.	.	.
12FF/J	.	.	.	.
!!LO:LB:g=original	!	!	!	!
=22	=22	=22	=22	=22
12FF/L	.	4A-/] 4c-] 4e-]	.	.
12C-/	.	.	.	.
12F/J)	.	.	.	.
*Xped	*	*	*	*
4FF-X/ 4C- 4F-X	.	4A-~>/) 4c- 4f-X	.	[[
=23	=23	=23	=23	=23
*ped	*	*	*	*
4EE-/ 4AA- 4E-	1 3 5	(>[2A-~>/ [2c- [2fn	.	<
(12EEE-/L	5	.	.	.
12AAA-/	3	.	.	.
12EE-/J	1	.	.	.
=24	=24	=24	=24	=24
12EE-/L	5	4A-/] 4c-] 4f]	.	.
12AA-/	.	.	.	.
12E-/J)	.	.	.	.
*Xped	*	*	*	*
4DDn/ 4AA- 4Dn	.	4A-/) 4c- 4g-	.	[
=25	=25	=25	=25	=25
*ped	*	*	*	*
4EE-/ 4AA- 4E-	.	(>[2A-/ [2c- [2fny	.	<
(12EEE-/L	.	.	.	.
12AAA-/	.	.	.	.
12EE-/J	.	.	.	.
=26	=26	=26	=26	=26
12EE-/L	.	4A-/] 4c-] 4f]	.	.
12AA-/	.	.	.	.
12E-/J)	.	.	.	.
*Xped	*	*	*	*
4DDn/ 4AA- 4Dn	.	4A-/) 4c- 4g-	.	[[
!!LO:LB:g=original	!	!	!	!
=27	=27	=27	=27	=27
*ped	*	*	*	*
4DD-X/ 4AA- 4D-X	.	(>[2B-~>/ [2f-X [2a-	.	<
(12DDD-/L	.	.	.	.
12AAA-/	.	.	.	.
12DD-/J	.	.	.	.
=28	=28	=28	=28	=28
12DD-/L	.	4B-/] 4f-] 4a-]	.	.
12AA-/	.	.	.	.
12D-/J)	.	.	.	.
*Xped	*	*	*	*
4BBB-/ 4BB-	.	4G-~>/) 4dn 4g- 4b-	.	[[
=29	=29	=29	=29	=29
*ped	*	*	*	*
4DD-/ 4AA- 4D-	.	[2B-~>/ [2f-X [2a-	.	<
(12DDD-/L	.	.	.	.
12AAA-/	.	.	.	.
12DD-/J	.	.	.	.
=30	=30	=30	=30	=30
12DD-/L	.	4B-/] 4f-] 4a-]	.	.
12AA-/	.	.	.	.
*Xped	*	*	*	*
12D-/J)	.	.	.	.
4BBB-/ 4BB-	.	4G-~>/ 4dn 4g- 4b-	.	[[
=31	=31	=31	=31	=31
*ped	*	*	*	*
!	!	!	!	!LO:HP:t=crescendo
4AAA-/ 4AA-	.	(>4c-/ 4e- 4b- 4cc-	.	<
(12E-\L	4	4e-/) 4a- 4cc- 4ee-	.	.
12A-\	.	.	.	.
12c-\J	.	.	.	.
=32	=32	=32	=32	=32
8A-\L	.	(>4c-/ 4e- 4b- 4cc-	.	.
8E-\J	.	.	.	.
12C-/L	1	4e-/) 4a- 4cc- 4ee-	.	.
12AA-/	.	.	.	.
12EE-/J)	.	.	.	.
*Xped	*	*	*	*
!!LO:LB:g=original	!	!	!	!
=33	=33	=33	=33	=33
*ped	*	*	*	*
4GGG-/ 4GG-	.	(4f\ 4b- 4dd- 4ff	.	.
!	!	!	!	!LO:HP:t=crescendo molto
(12E-\L	.	4a-\ 4cc- 4ee- 4aa-	.	<
12A-\	.	.	.	.
12c-\J	.	.	.	.
=34	=34	=34	=34	=34
8A-\L	.	4f\ 4b- 4dd- 4ff	.	.
8E-\J	.	.	.	.
12C-/L	.	4a-\ 4cc- 4ee- 4aa-	.	.
12AA-/	.	.	.	.
12EE-/J)	.	.	.	.
*Xped	*	*	*	*
=35	=35	=35	=35	=35
*ped	*	*	*	*
4FFF/ 4FF	.	4cc-\ 4ee- 4bb- 4ccc-	.	<
(12E-\L	.	4ee-\ 4aa- 4ccc- 4eee-	.	.
12A-\	.	.	.	.
12c-\J	.	.	.	.
=36	=36	=36	=36	=36
8A-\L	.	4cc-\ 4ee- 4bb- 4ccc-	.	.
8E-\J	.	.	.	.
12C-/L	.	4ee-\ 4aa- 4ccc- 4eee-	.	.
12AA-/	.	.	.	.
12EE-/J)	.	.	.	.
*Xped	*	*	*	*
=37	=37	=37	=37	=37
*ped	*	*	*	*
4EEE-/ 4EE-	.	4ff\ 4bb- 4ddd- 4fff	.	.
(12AA-/L	3	4aa-\ 4ccc- 4eee- 4aaa-	.	.
12C-/	.	.	.	.
12E-/J	.	.	.	.
=38	=38	=38	=38	=38
12A-\L	3	4ff\ 4bb- 4ddd- 4fff	.	.
12c-\	.	.	.	.
12e-\J	.	.	.	.
*clefG2	*	*	*	*
12a-\L	3	4aa-\) 4ccc- 4eee- 4aaa-	.	[
12cc-\	.	.	.	.
12ee-\J)	.	.	.	.
*clefF4	*	*	*	*
*Xped	*	*	*	*
!!LO:LB:g=original	!	!	!	!
=39	=39	=39	=39	=39
*^	*	*	*	*
*	*	*^	*	*	*
*ped	*	*below	*above	*8va	*	*
4DDD-/ 4DD-	4ryy	.	.	[2bb-\ [2fff-X [<2aaa- [2bbb-	.	ff
N(<12F-X/L	(12AA-\L	4	1	.	.	.
12A-/	12D-\	2	2	.	.	.
12d-/J	12F-X\J	1	4	.	.	.
*	*	*v	*v	*	*	*
=40	=40	=40	=40	=40	=40
*	*	*^	*	*	*
12f-X>/L	12A-\L	4	1	4bb-\] 4fff-] 4aaa-] 4bbb-]	.	.
12a->/	12d-\	.	.	.	.	.
12dd->/J)N	12f-X\J)	.	.	.	.	.
*	*	*	*	*X8va	*	*
*	*	*v	*v	*	*	*
*v	*v	*	*	*	*
*	*	*8va	*	*
*^	*	*	*	*
*Xped	*	*below	*	*	*
(12G-\L 12e--	4ryy	2 5	4ccc-\ 4eee-- 4ggg- 4cccc-	.	.
12c-\ 12g-	.	1 3	.	.	.
12e--\J) 12cc-	.	2 5	.	.	.
*v	*v	*	*	*	*
*	*	*X8va	*	*
=41	=41	=41	=41	=41
*^	*	*	*	*
*ped	*	*	*8va	*	*
4DDD-/ 4DD-	4ryy	.	[2bb-\ [2fff-X [2aaa- [2bbb-	.	.
N(<12F-X/L	(12AA-\L	.	.	.	.
12A-/	12D-\	.	.	.	.
12d-/J	12F-X\J	.	.	.	.
=42	=42	=42	=42	=42	=42
12f-X>/L	12A-\L	.	4bb-\] 4fff-] 4aaa-] 4bbb-]	.	.
12a->/	12d-\	.	.	.	.
12dd->/J)N	12f-X\J)	.	.	.	.
*	*	*	*X8va	*	*
*v	*v	*	*	*	*
*	*	*8va	*	*
*^	*	*	*	*
*Xped	*	*	*	*	*
(12G-\L 12e--	4ryy	.	4ccc-\ 4eee-- 4ggg- 4cccc-	.	.
12c-\ 12g-	.	.	.	.	.
12e--\J) 12cc-	.	.	.	.	.
*v	*v	*	*	*	*
*	*	*X8va	*	*
=43	=43	=43	=43	=43
*ped	*	*8va	*	*
4F-X:\ 4B-: 4d-: 4a--:	.	4bb-:\ 4fff-X: 4aaa--: 4dddd-:	.	.
*	*	*X8va	*	*
NN(12FF-X\L	5	4r	.	.
12BB-\	3	.	.	.
12A--\J	1	.	.	.
!!LO:LB:g=original	!	!	!	!
=44	=44	=44	=44	=44
*Xped	*	*Xtuplet	*above	*
4r	.	12d-\L	1	.
.	.	12b-\	2	.
.	.	12aa--\JNN)	5	.
4B--\ 4d-	.	4f-X/ 4b-- 4dd-	4	.
=45	=45	=45	=45	=45
*ped	*	*8va	*	*
!LO:N:n=2:acc=n-	!	!	!	!
4F-X:\ 4B-X: 4d-: 4a--:	.	4bb-X:\ 4fff-X: 4aaa--: 4dddd-:	.	.
*	*	*X8va	*	*
NN(12FF-X\L	.	4r	.	.
12BB-\	.	.	.	.
12A--\J	.	.	.	.
=46	=46	=46	=46	=46
*Xped	*	*	*	*
4r	.	12d-\L	.	.
.	.	12b-\	.	.
.	.	12aa--\JNN)	.	.
!	!	!	!	!LO:HP:t=diminuendo poco a poco
4B--\ 4d-	.	4f-X/ 4b-- 4dd-	.	>
=47	=47	=47	=47	=47
*^	*	*^	*	*
4A-/ 4cn	[2BB-\	.	[2ee-/	4e-\ 4a- 4ccn	.	.
4Gn/ 4Bn	.	.	.	4dn\ 4gn 4bn	.	.
=48	=48	=48	=48	=48	=48	=48
!LO:TX:t=P:problem: voice leading line	!	!	!	!	!	!
4G-X/ 4B-X	2BB-\_	.	4ee-/]	4d-X\ 4g-X 4b-X	.	.
4cn>\ 4f> 4an>	.	.	(12ccn/L	4ryy	1	.
.	.	.	12ff/	.	2	.
.	.	.	[12eee-/J	.	5	.
*v	*v	*	*	*	*	*
!!LO:LB:g=original	!	!	!	!	!
=49	=49	=49	=49	=49	=49
!	!	!	!	!	!LO:HP:t=dim. e ritardando poco a poco
2BB-\_<	.	4eee-/])	4c-X\ 4f-X 4a-X	.	>
.	.	12ggn/L	4B-\ 4e- 4gn	1	.
.	.	12eee-/	.	.	.
.	.	[12bbb-/J	.	.	.
=50	=50	=50	=50	=50	=50
*^	*	*	*	*	*
4ryy	2BB-\]	.	4bbb-/]	4B--\ 4e-- 4g-X	.	.
*	*	*	*v	*v	*	*
*	*	*	*8va	*	*
*	*	*	*^	*	*
!LO:TX:t=P:problem: voice leading line	!	!	!	!	!	!
4A-/ 4d- 4f	.	.	12bb-/L	4ryy	1	.
.	.	.	12fff/	.	.	.
.	.	.	[>12eeee-/J	.	.	.
*kcancel	*	*	*kcancel	*	*	*
*v	*v	*	*	*	*	*
*	*	*v	*v	*	*
=51||	=51||	=51||	=51||	=51||
*k[b-e-a-]	*	*k[b-e-a-]	*	*
*ped	*	*	*	*
!	!	!LO:TX:a:B:t=Poco piu lento, con sentimento. [quarter] = 76.	!	!
2EEE-/	.	4eeee-\]	.	pp
*	*	*X8va	*	*
.	.	4r	.	.
*clefG2	*	*	*	*
=52	=52	=52	=52	=52
*	*	*8va	*	*
!	!	!LO:TX:b:i:t=dolce	!	!
4cc\ 4bb-	1 3	4eee-\ 4ggg 4eeee-	.	.
4b-\ 4gg	1 4	4ccc\ 4eee- 4cccc	.	.
=53	=53	=53	=53	=53
4a-\ 4ff	2 5	[2bb-\ [2ddd [2bbb-	.	.
*clefF4	*	*	*	*
[4EEE-/	.	.	.	.
!!LO:PB:g=original	!	!	!	!
=54	=54	=54	=54	=54
2EEE-/]	.	8bb-\L] 8ddd] 8bbb-]	.	<
.	.	(8ff\ 8fff	.	.
.	.	8gg\ 8ggg	.	.
.	.	8aa-\J 8aaa-	.	[[
*clefG2	*	*	*	*
=55	=55	=55	=55	=55
*	*	*^	*	*
*	*above	*	*	*	*
((2g\ 2een	3 1	4ddd-X/	8bb-\L 8bbb-	.	>
.	.	.	16ccc\L 16cccc	.	.
.	.	.	16bb-\JJ 16bbb-	.	.
.	.	8aa-\L 8aaa-	4ryy	.	.
.	.	8gg\J 8ggg	.	.	]]
=56	=56	=56	=56	=56	=56
*^	*	*	*	*	*
*Xped	*	*	*	*	*	*
2a-/)) 2cc	4r	2 1	2ccc/	8ff\L 8fff	.	<
.	.	.	.	8gg\J 8ggg	.	.
*	*	*below	*	*	*	*
.	(4e-\	4	.	[4aa-\ [>4aaa-	.	[[
=57	=57	=57	=57	=57	=57	=57
2f/ 2bn	2d\)	5	2bbn/	8aa-\] 8aaa-]	.	.
.	.	.	.	4gg\ 4ggg	.	>
.	.	.	.	8ff\) 8fff	.	]]
*clefF4	*	*	*	*	*	*
*v	*v	*	*	*	*	*
*	*	*v	*v	*	*
*	*	*X8va	*	*
=58	=58	=58	=58	=58
*^	*	*	*	*
*ped	*	*	*	*	*
4r	2DDD/	.	4r	.	.
*clefG2	*	*	*8va	*	*
*	*	*	*	*	*
((4e-/ 4cc	.	4	[4gg\ [4ggg	.	.
*v	*v	*	*	*	*
=59	=59	=59	=59	=59
[2d/)) [2f [2bn	5	(8gg\] 8ggg]	.	.
.	.	4bb-X\ 4bbb-X	.	>
.	.	8aa-\ 8aaa-	.	.
!!LO:LB:g=original	!	!	!	!
=60	=60	=60	=60	=60
4d/] 4f] 4b]	.	[2gg\) [2ggg	.	]]
((4e-/ 4cc	.	.	.	.
=61	=61	=61	=61	=61
((>2d/)) 2f 2bn	.	8gg\] 8ggg]	.	.
.	.	(4bb-X\ 4bbb-X	.	>
.	.	8aa-\ 8aaa-	.	.
=62	=62	=62	=62	=62
*^	*	*	*	*
*Xped	*	*	*	*	*
4cc/)	4e-\)	.	4gg\) 4ggg	.	.
*v	*v	*	*	*	*
*	*	*X8va	*	*
*^	*	*	*	*
[4e-/ [4g	(4e-\	1 2	(8cc\L 8ccc	.	] <
.	.	.	8dd\J 8ddd	.	.
=63	=63	=63	=63	=63	=63
2e-/_ 2g_	4d\	.	[2ee-\) [2eee-	.	[[
.	4c\	.	.	.	.
=64	=64	=64	=64	=64	=64
*	*	*	*	*	*^
2e-/] 2g]	2B-\)	.	4ee-\] 4eee-]	.	.	.
!	!	!	!	!	!	!LO:DY:t=piu pp
.	.	.	(8cc\L 8ccc	.	<	pp
.	.	.	8dd\J 8ddd	.	.	.
=65	=65	=65	=65	=65	=65	=65
*ped	*	*	*	*	*	*
2c-X/ 2g-X	2A-\	1 3 5	2ee-\) 2eee-	.	[[	.
*Xped	*	*	*	*	*	*
*	*	*	*	*	*v	*v
*v	*v	*	*	*	*
*clefF4	*	*	*	*
!!LO:LB:g=original	!	!	!	!
=66	=66	=66	=66	=66
*ped	*	*	*	*
[2EEE-/	.	2r	.	.
=67	=67	=67	=67	=67
*	*	*^	*	*
*	*	*	*	*below	*
2EEE-/_	.	(4ee-/ 4gg 4eee-	(4c\ 4b-	1 3	.
.	.	4cc/ 4ee- 4ccc	4B-\ 4g	1 4	.
=68	=68	=68	=68	=68	=68
4EEE-/]	.	[2b-/) [2dd [2bb-	4A-\) 4f	2 5	.
[4EEE-/	.	.	4ryy	.	.
*	*	*v	*v	*	*
=69	=69	=69	=69	=69
2EEE-/_	.	8b-\L] 8dd] 8bb-]	.	.
.	.	(8f\ 8ff	.	<
.	.	8g\ 8gg	.	.
.	.	8a-\J 8aa-	.	[[
=70	=70	=70	=70	=70
*^	*	*	*	*
((>2G/ 2en	2EEE-\]	.	8b-\L 8dd-X 8bb-	.	.
.	.	.	16cc\L 16ccc	.	>
.	.	.	16b-\JJ 16bb-	.	.
.	.	.	8a-\L 8aa-	.	.
.	.	.	8g\J) 8gg	.	]]
=71	=71	=71	=71	=71	=71
*ped	*	*	*	*	*
[2A-/)) [2c	4r	.	(8f\L 8ff	.	<
.	.	.	8g\J 8gg	.	.
!	!	!	!LO:TX:a:i:t=ritar_dando poco a poco	!	!
.	[4E-\	.	[4a-\ [4aa-	.	[[
!!LO:LB:g=original	!	!	!	!	!
=72	=72	=72	=72	=72	=72
4A-/] 4c]	4E-\]	.	4a-\] 4aa-]	.	>
*Xped	*	*	*	*	*
4D\ 4F 4Bn	4ryy	.	4g\ 4gg	.	]]
=73	=73	=73	=73	=73	=73
*	*	*	*^	*	*
*	*ped	*	*	*	*	*
!	!	!	!	!	!	!LO:DY:t= poco sfz
[2D-X/ 2B-X [2d-X	4r	.	2g-X\ 2gg-X	4ryy	.	sfz
.	[4EEE-\	.	.	4ryy	.	sfz >
*	*	*	*v	*v	*	*
=74	=74	=74	=74	=74	=74
4D-/] [4An 4d-]	2EEE-\_	.	2f\ 2ff	.	]
[4D-X/ 4A_ [4d-X	.	.	.	.	.
=75	=75	=75	=75	=75	=75
!	!	!	!	!	!LO:DY:t=poco sfz
2D-/_ 2A_ 2d-_	2EEE-\]	.	[2en/) [2een	.	sfz
=76	=76	=76	=76	=76	=76
2D-/_ 2A_ 2d-_	2EEE-~\	.	2e/_ 2ee_	.	.
=77	=77	=77	=77	=77	=77
2D-/] 2A] 2d-]	[2EEE-~\	.	2e/] 2ee]	.	.
=78	=78	=78	=78	=78	=78
2D-X/ 2G 2B- 2d-X	2EEE-\]	.	2e-X/ 2g 2b- 2ee-X	.	.
*Xped	*	*	*	*	*
*v	*v	*	*	*	*
=79	=79	=79	=79	=79
*	*	*^	*	*
*	*	*	*	*	*^
*	*	*	*	*above	*	*
!	!	!LO:TX:a:i:t=a tempo	!	!	!	!LO:DY:t=poco forte
4r	.	(>8b-/L	4ryy	3	<	f
.	.	8cc/J	.	.	.	.
(<4BB-\ [4G	4	4dd-X/)	[4f-X\	.	[[	.
!!LO:LB:g=original	!	!	!	!	!	!
=80	=80	=80	=80	=80	=80	=80
*^	*	*	*	*	*	*
2G/]	4C\	.	(8a-/L	4f-X\]	3	<	.
.	.	.	8b-/J	.	.	.	.
.	4AA-\)	.	4cc/)	4e-\	.	[[	.
*	*	*	*	*	*	*v	*v
*	*	*	*v	*v	*	*
=81	=81	=81	=81	=81	=81
*ped	*	*	*	*	*
!	!	!	!LO:TX:a:Bi:t=rit._:problem: with line extensions	!	!
!	!	!	!LO:TX:a:i:t=rit._	!	!
[2GG/ [2D-X [2F-X [2G	4r	.	[2B-/ [2d-X [2f-X [2b-	.	.
.	[4EEE-\	.	.	.	.
=82	=82	=82	=82	=82	=82
2GG/] 2D-] 2F-] 2G]	2EEE-\]	.	2B-/] 2d-] 2f-] 2b-]	.	.
*Xped	*	*	*	*	*
=83	=83	=83	=83	=83	=83
*ped	*	*	*	*	*
NN(16EE-\LL	8ryy	.	4r	.	pp
[<16EE-\JJ [<16D-X	.	.	.	.	.
*	*	*above	*	*	*
[<32F\LL	8EE-\_ 8D-_	1	.	.	.
32F/_< [32A-	.	6	.	.	.
32F/_ 32A-_ [32c-X	.	.	.	.	.
32F/JJ_ 32A-_ 32c-_ [32f	.	.	.	.	.
!	!	!	!LO:TX:a:Bi:t=m.g._:problem: with line extensions	!	!
!	!	!	!LO:TX:a:i:t=m.g._	!	!
4F/_ 4A-_ 4c-_ 4f_	4EE-\_ 4D-_	.	(>[>4a-/NN)	.	<
=84	=84	=84	=84	=84	=84
*Xped	*	*	*	*	*
2F/] 2A-] 2c-] 2f]	2EE-\] 2D-]	.	4a-/]	.	.
.	.	.	4b-/)	.	[[
*v	*v	*	*	*	*
!!LO:PB:g=original	!	!	!	!
=85	=85	=85	=85	=85
*	*	*^	*	*
*ped	*	*	*	*	*
!	!	!LO:TX:a:B:t=Lento.	!	!	!
(24EE-/LL	.	8ryy	4r	.	pp
24BB-/	.	.	.	.	.
24E-/JJ	.	.	.	.	.
!LO:TX:a:i:t=m.d.	!	!	!	!	!
8ryy	.	[<32G<\LL	.	.	.
.	.	32G<\_ [32B-<	.	.	.
.	.	32G<\_ 32B-<_ [32e-<	.	.	.
.	.	32G<\JJ_ 32B-<_> 32e-<_ [32g<	.	.	.
!	!	!LO:TX:a:i:t=m.g.	!	!	!
[4ee->^>\)	.	4G<\_ 4B-<_> 4e-<_ 4g<_	4ryy	.	.
*	*	*v	*v	*	*
=86	=86	=86	=86	=86
2ee->\]	.	2G<\_> 2B-<_> 2e-<_ 2g<_	.	.
=87	=87	=87	=87	=87
!LO:TX:b:i:t=m.g.	!	!	!	!
[2C^\	.	2G</_ 2B-<_ 2e-<_ 2g<_	.	.
=88	=88	=88	=88	=88
2C\]	.	2G</] 2B-<] 2e-<] 2g<]	.	.
*kcancel	*	*	*	*
*Xped	*	*kcancel	*	*
=89||	=89||	=89||	=89||	=89||
*k[]	*	*k[]	*	*
!LO:TX:b:i:t=con Ped.	!	!LO:TX:a:B:t=Tempo I.	!	!
8DD\L 8D	.	4BB<~/ 4G< 4B<	.	mf
8GG\	.	.	.	.
8GGG\ 8GG	.	4C<~/ 4G< 4B< 4c<	.	.
8DD\J	.	.	.	.
=90	=90	=90	=90	=90
8DD\L 8D	.	4D<~/ 4G< 4B< 4d<	.	.
8GG\	.	.	.	.
8GGG\ 8GG	.	4E<~/ 4G< 4B< 4e<	.	.
8DD\J	.	.	.	.
=91	=91	=91	=91	=91
8DD/L 8D	.	4F#X~>/ 4B 4d 4f#X	.	.
8GG/	.	.	.	.
8GGG/ 8GG	.	4G~>/ 4B 4d 4g	.	.
8DD/J	.	.	.	.
!!LO:LB:g=original	!	!	!	!
=92	=92	=92	=92	=92
8DD/L 8D	.	4A~/ 4d 4g 4a	.	.
8GG/	.	.	.	.
8GGG/ 8GG	.	4B~/ 4d 4g 4b	.	.
8DD/J	.	.	.	.
=93	=93	=93	=93	=93
*ped	*	*	*	*
8FF#X/L 8F#X	.	(>[2c/ [2e-X [2f#X [2a [2cc	.	<
!LO:TX:b:i:t=sempre marcato	!	!	!	!
8C/	.	.	.	.
8EE-X/ 8E-X	.	.	.	.
8AA/J	.	.	.	.
=94	=94	=94	=94	=94
8CC/L 8C	.	4c/] 4e-] 4f#] 4a] 4cc]	.	.
*Xped	*	*	*	*
8FF#X/	.	.	.	.
*ped	*	*	*	*
8BBB/ 8BB	.	4d/) 4fn 4g#X 4b 4dd	.	[[
8FFn/J	.	.	.	.
=95	=95	=95	=95	=95
*ped	*	*	*	*
8FF#X/L 8F#X	.	(>[2c/ [2e-X [>2f#X [2a [2cc	.	<
8C/	.	.	.	.
8EE-X/ 8E-X	.	.	.	.
8AA/J	.	.	.	.
=96	=96	=96	=96	=96
8CC/L 8C	.	4c/] 4e-] 4f#] 4a] 4cc]	.	.
*Xped	*	*	*	*
8FF#X/	.	.	.	.
*ped	*	*	*	*
8BBB/ 8BB	.	4d/) 4fn 4g#X 4b 4dd	.	[[
8FFn/J	.	.	.	.
=97	=97	=97	=97	=97
*ped	*	*	*	*
*8ba	*	*	*	*
8AAA/L 8AA	.	([2e-X/ [>2f#X [>2a [2cc [2ee-X	.	<
8EE-X/	.	.	.	.
8FFF#X/ 8FF#X	.	.	.	.
8CC/J	.	.	.	.
=98	=98	=98	=98	=98
8EEE-X/L 8EE-X	.	4e-/] 4f#] 4a] 4cc] 4ee-]	.	.
8AAA/	.	.	.	.
*ped	*	*	*	*
8DDD/ 8DD	.	4fn\) 4g#X 4b 4dd 4ff	.	[[
8GGG#X/J	.	.	.	.
!!LO:LB:g=original	!	!	!	!
=99	=99	=99	=99	=99
*ped	*	*	*	*
8AAA/L 8AA	.	([2e-X/ [>2f#X [>2a [2cc [2ee-X	.	<
8EE-X/	.	.	.	.
8FFF#X/ 8FF#X	.	.	.	.
8CC/J	.	.	.	.
=100	=100	=100	=100	=100
8EEE-X/L 8EE-X	.	4e-/] 4f#] 4a] 4cc] 4ee-]	.	.
8AAA/	.	.	.	.
*ped	*	*	*	*
8DDD/ 8DD	.	4fn\) 4g#X 4b 4dd 4ff	.	[[
8GGG#X/J	.	.	.	.
=101	=101	=101	=101	=101
*ped	*	*	*	*
!	!	!LO:TX:b:t=cre_scen_do:dur=3h4q:ext=ud:problem:text with extention lines	!	!
8CCC#X\L 8CC#X	.	([2f#X\ [2a [2cc#X [2ff#X	.	<
8FFF#X\	.	.	.	.
*X8ba	*	*	*	*
8C#X\ 8c#X	.	.	.	.
8F#X\J	.	.	.	.
=102	=102	=102	=102	=102
8FF#X/L 8F#X	.	4f#\] 4a] 4cc#] 4ff#]	.	.
8C#X/	.	.	.	.
8CC#X/ 8C#	.	4g#X\) 4cc#X 4ff#X 4gg#X	.	.
*Xped	*	*	*	*
8FF#/J	.	.	.	.
=103	=103	=103	=103	=103
*ped	*	*	*	*
8CC#X\L 8C#X	.	([2a\ [2cc#X [2ff#X [2aa	.	.
8FF#X\	.	.	.	.
8C#\ 8c#X	.	.	.	.
8F#X\J	.	.	.	.
=104	=104	=104	=104	=104
8FF#X/L 8F#X	.	4a\] 4cc#] 4ff#] 4aa]	.	.
8C#X/	.	.	.	.
8CC#X/ 8C#	.	4a\ 4ee 4aa 4bb	.	.
*Xped	*	*	*	*
8FF#/J	.	.	.	.
!!LO:LB:g=original	!	!	!	!
=105	=105	=105	=105	=105
*8ba	*	*	*	*
*	*	*^	*	*
*ped	*	*	*	*	*
8CCC#X/L 8CC#X	.	[2ccc#X:/	[2a:\ [2ee#X: [2aa:	.	.
8GGG#X/J	.	.	.	.	.
*X8ba	*	*	*	*	*
8C#X\L 8c#X	.	.	.	.	.
8G#X\J	.	.	.	.	[[
=106	=106	=106	=106	=106	=106
!	!	!	!	!	!LO:HP:t=dim.
8GG#X/L 8G#X	.	2ccc#/]	4a\] 4ee#] 4aa]	.	>
8C#X/	.	.	.	.	.
8CC#X/ 8C#X	.	.	4g#X\ 4gg#X	.	>
8GG#/J	.	.	.	.	.
*	*	*v	*v	*	*
=107	=107	=107	=107	=107
*8ba	*	*	*	*
*ped	*	*	*	*
*	*	*^	*	*
8CCC#X/L 8CC#X	.	[2gg#X/	[2f#X\ [2cc#X [2ff#X	.	.
8GGG#X/J	.	.	.	.	.
*X8ba	*	*	*	*	*
8C#X\L 8c#X	.	.	.	.	.
8G#X\J	.	.	.	.	.
=108	=108	=108	=108	=108	=108
8GG#X/L 8G#X	.	2gg#/]	4f#\] 4cc#] 4ff#]	.	.
8C#X/	.	.	.	.	.
8CC#X/ 8C#	.	.	4e#X/) 4ee#X	.	.
*Xped	*	*	*	*	*
8GG#/J	.	.	.	.	]]
*	*	*v	*v	*	*
=109	=109	=109	=109	=109
*ped	*	*	*	*
!	!	!LO:TX:b:i:t=agitato	!	!
(8CC#X\L 8C#X	.	(4.f\ 4.a 4.ff	.	f >
8c#X\	.	.	.	.
8A\	.	.	.	.
8E\J)	.	8e\) 8ee	.	]
=110	=110	=110	=110	=110
*ped	*	*	*	*
(8CCn\L 8Cn	.	(4.g\ 4.a 4.ee-X 4.gg	.	>
8e-X\	.	.	.	.
8A\	.	.	.	.
8F\J)	.	8g-X\) 8gg-X	.	]]
=111	=111	=111	=111	=111
*ped	*	*	*	*
(8CC#X\L 8C#X	.	(4.f\ 4.a 4.ff	.	>
8c#X\	.	.	.	.
8A\	.	.	.	.
8E\J)	.	8e/) 8ee	.	]]
!!LO:LB:g=original	!	!	!	!
=112	=112	=112	=112	=112
*ped	*	*	*	*
(8CCn\L 8Cn	.	(4.g\ 4.a 4.ee-X 4.gg	.	>
8e-X\	.	.	.	.
8A\	.	.	.	.
8F\J)	.	8g-X\) 8gg-X	.	]]
=113	=113	=113	=113	=113
*^	*	*	*	*
*ped	*	*	*	*	*
8ryy	8BBB\L 8BB	.	(4.f\ 4.a 4.ff	.	>
4.d#X/	(>8d#\	.	.	.	.
.	8A\	.	.	.	.
.	[8F#X\J)	.	8e/ 8ee	.	.
=114	=114	=114	=114	=114	=114
8ryy	8F#\L]	.	4e/ 4ee	.	.
4.c/	(>8c\	.	.	.	.
.	8A\	.	4d#X/) 4dd#X	.	]]
.	8F#X\J)	.	.	.	.
*Xped	*	*	*	*	*
*v	*v	*	*	*	*
=115	=115	=115	=115	=115
*ped	*	*	*	*
(8BBB\L 8BB	.	(>4.e-X/ 4.g 4.ee-X	.	>
8B\	.	.	.	.
8G\	.	.	.	.
8D\J)	.	8d/) 8dd	.	]]
=116	=116	=116	=116	=116
*ped	*	*	*	*
(8BBB-X\L 8BB-X	.	(4.f\ 4.g 4.dd-X 4.ff	.	>
8d-X\	.	.	.	.
8G\	.	.	.	.
8E-X\J)	.	8f-X\) 8ff-X	.	]
=117	=117	=117	=117	=117
*ped	*	*	*	*
(8BBBn\L 8BBn	.	(>4.e-X/ 4.g 4.ee-X	.	>
8B\	.	.	.	.
8G\	.	.	.	.
8D\J)	.	8d/) 8dd	.	]]
=118	=118	=118	=118	=118
*ped	*	*	*	*
(8BBB-X\L 8BB-X	.	(4.f\ 4.g 4.dd-X 4.ff	.	>
8d-X\	.	.	.	.
8G\	.	.	.	.
8E-X\J)	.	8f-X\) 8ff-X	.	]
!!LO:LB:g=original	!	!	!	!
=119	=119	=119	=119	=119
*^	*	*	*	*
*ped	*	*	*	*	*
8ryy	8AAA\L 8AA	.	(>4.e-X/ 4.g 4.ee-X	.	>
4.c#X/	(>8c#\	.	.	.	.
.	8G\	.	.	.	.
.	[>8E\J)	.	8d/ 8dd	.	.
=120	=120	=120	=120	=120	=120
8ryy	8E\L]	.	4d^>/ 4dd	.	.
4.B-X/	(>8B-\	.	.	.	.
.	8G\	.	4c#X/) 4cc#X	.	]]
.	8E\J)	.	.	.	.
*Xped	*	*	*	*	*
*v	*v	*	*	*	*
=121	=121	=121	=121	=121
*ped	*	*	*	*
!	!	!LO:TX:b:Bi:t=crescendo molto_:problem:dynamics with line extensions	!	!LO:HP:t=crescendo molto_
8FF#X/L 8F#X	.	[2c/ [2e-X [>2f#X [2a [2cc	.	f <
8C/	.	.	.	.
8EE-X/ 8E-X	.	.	.	.
8AA/J	.	.	.	.
=122	=122	=122	=122	=122
8CC/L 8C	.	4c/] 4e-] 4f#] 4a] 4cc]	.	.
*Xped	*	*	*	*
8FF#X/	.	.	.	.
8BBB/ 8BB	.	4d/ 4fn 4g#X 4b 4dd	.	.
8FFn/J	.	.	.	.
=123	=123	=123	=123	=123
*ped	*	*	*	*
8AAA/L 8AA	.	[2e-X/ [>2f#X [>2a [2cc [2ee-X	.	.
8EE-X/	.	.	.	.
8FFF#X/ 8FF#X	.	.	.	.
8CC/J	.	.	.	.
=124	=124	=124	=124	=124
*8ba	*	*	*	*
8EEE-X/L 8EE-X	.	4e-/] 4f#] 4a] 4cc] 4ee-]	.	.
*Xped	*	*	*	*
8AAA/	.	.	.	.
8DDD/ 8DD	.	4fn/ 4g#X 4b 4dd 4ffn	.	.
8GGG#X/J	.	.	.	.
=125	=125	=125	=125	=125
*ped	*	*	*	*
8CCC#X/L 8CC#X	.	4f#X\ 4a 4dd 4ff#X	.	.
8FFF#X/J	.	.	.	.
*X8ba	*	*	*	*
*Xped	*	*	*	*
8C#X\L 8c#X	.	4g#X\ 4dd 4ff# 4gg#X	.	.
8F#X\J	.	.	.	.
!!LO:PB:g=original	!	!	!	!
=126	=126	=126	=126	=126
*ped	*	*	*	*
8FF#X/L 8F#X	.	4a\ 4dd 4ff#X 4aa	.	.
8C#X/	.	.	.	.
*ped	*	*	*	*
8CC#X/ 8C#	.	4b\ 4dd 4ff# 4bb	.	.
8FF#X/J	.	.	.	.
=127	=127	=127	=127	=127
*8ba	*	*	*	*
*ped	*	*	*	*
8CCC#X/L 8CC#X	.	4cc#X\ 4ff#X 4aa 4ccc#X	.	<
8FFF#X/J	.	.	.	.
*X8ba	*	*	*	*
*ped	*	*	*	*
8C#X\L 8c#X	.	4dd\ 4ff# 4aa 4ddd	.	.
8F#X\J	.	.	.	.
=128	=128	=128	=128	=128
*ped	*	*	*	*
8FF#X/L 8F#X	.	4ee\ 4aa 4ddd 4eee	.	.
8C#X/	.	.	.	.
*ped	*	*	*	*
8CC#X/ 8C#	.	4ff#X\ 4aa 4ddd 4fff#X	.	.
8FF#X/J	.	.	.	.
=129	=129	=129	=129	=129
*ped	*	*8va	*	*
!	!	!	!	!LO:HP:t=sempre marcato e crescendo
(8CCn/L 8Cn	.	4gg#X^\ 4ddd 4fff#X 4ggg#X	.	ff <
8FF#X/J)	.	.	.	.
(8C\L 8c	.	4aa^\ 4ddd 4fff# 4aaa	.	.
8F#X\J)	.	.	.	.
*	*	*X8va	*	*
=130	=130	=130	=130	=130
(8CC/L 8C	.	4gn^\ 4a 4dd 4ggn	.	.
8FFn/J)	.	.	.	.
(8C\L 8c	.	4f#X^\ 4a 4dd 4ff#X	.	.
8F#X\J)	.	.	.	.
=131	=131	=131	=131	=131
*ped	*	*8va	*	*
8BBB/L 8BB	.	4aa#X^\ 4ddd 4fffn 4aaa#X	.	.
8FFn/J	.	.	.	.
8BB\L 8B	.	4bb^\ 4ddd 4fff 4bbb	.	.
8F\J	.	.	.	.
*	*	*X8va	*	*
=132	=132	=132	=132	=132
*ped	*	*	*	*
8BBB/L 8BB	.	4e^>/ 4g#X 4b 4ee	.	.
8FF/J	.	.	.	.
8BB\L 8B	.	4d^>/ 4g# 4b 4dd	.	.
8F\J	.	.	.	.
!!LO:LB:g=original	!	!	!	!
=133	=133	=133	=133	=133
*ped	*	*8va	*	*
8GGG/L 8GG	.	4bb-X^\ 4ddd 4fff 4aaa-X 4bbb-X	.	.
(8Bn/	.	.	.	.
8F/	.	4bbn^\ 4ddd 4fff 4aaa- 4bbbn	.	.
8D-X/J)	.	.	.	.
*Xped	*	*X8va	*	*
=134	=134	=134	=134	=134
*^	*	*	*	*
*ped	*	*	*	*	*
4AA-X/	8AA-\L	.	4r	.	.
.	(>8B\	.	.	.	.
4ryy	8F\	.	4f\ 4ff	.	sfz
.	8D-X\J)	.	.	.	.
*Xped	*	*	*	*	*
=135	=135	=135	=135	=135	=135
*ped	*	*	*	*	*
4DD-X^/	8DD-\L	.	(4b-X^\ 4dd-X 4ff 4aa-X 4bb-X	.	.
.	(>8Bn\	.	.	.	.
4ryy	8F\	.	4bn^\) 4dd- 4ff 4aa- 4bbn	.	.
.	8D-X\J)	.	.	.	.
*Xped	*	*	*	*	*
=136	=136	=136	=136	=136	=136
*ped	*	*	*	*	*
4AAAn^/	8AAA\L	.	4r	.	.
.	(>8B\	.	.	.	.
4ryy	8F\	.	4B/ 4b	.	sfz
.	8D-X\J)	.	.	.	.
*Xped	*	*	*	*	*
=137	=137	=137	=137	=137	=137
*ped	*	*	*	*	*
4GGG^^/	8GGG\L	.	4B-X/ 4d-X 4f-X 4a-X 4b-X	.	.
.	(>8A-X\	.	.	.	.
4ryy	8D-X\	.	8r	.	.
.	8AA-X\J)	.	(8f-^\ 8ff-X	.	.
*Xped	*	*	*	*	*
=138	=138	=138	=138	=138	=138
*ped	*	*	*	*	*
4AAAn^^/	8AAA\L	.	8An/ 8c#X 8e 8g 8an	.	.
.	(>8G\	.	4f#X^\ 4ff#X	.	.
4ryy	8C#X\	.	.	.	.
.	8AAn\J)	.	8g^\) 8gg	.	.
*Xped	*	*	*	*	*
*v	*v	*	*	*	*
!!LO:LB:g=original	!	!	!	!
=139	=139	=139	=139	=139
*ped	*	*	*	*
!	!	!	!	!LO:DY:t=sempre ff
8FFF-X^^\L 8FF-X	.	4B-X/ 4d-X 4f-X 4a-X 4b-X	.	ff
(8A-X\	.	.	.	.
8D-X\	.	8r	.	.
8AA-X\J)	.	(8a-X^\ 8aa-X	.	.
*Xped	*	*	*	*
=140	=140	=140	=140	=140
*ped	*	*	*	*
8CCC#X^^/L 8CC#X	.	8An/ 8c#X 8e 8g 8an	.	<
(8G/	.	4bn^\ 4bbn	.	.
8C#X/	.	.	.	.
8AA/J)	.	8ccn^\) 8cccn	.	[[
*Xped	*	*	*	*
=141	=141	=141	=141	=141
*ped	*	*	*	*
8C#X/L 8F#X 8A 8c#X	.	4.cc#X\ 4.ff#X 4.aa 4.ccc#X	.	fff
8CCn^^</ 8Cn	.	.	.	.
8FF#X^^</	.	.	.	.
*8ba	*	*	*	*
8CCCn^^</J 8CCn	.	8dd\ 8ff# 8aa 8ddd	.	.
*X8ba	*	*	*	*
=142	=142	=142	=142	=142
*ped	*	*	*	*
8D#X/L 8F#X 8G#X 8B 8d#X	.	2dd#X\ 2ff#X 2gg#X 2bb 2ddd#X	.	.
8BBB^^</J 8BB	.	.	.	.
8FF#X^^</L	.	.	.	.
8FFF#X^^</J 8FF#X	.	.	.	.
=143	=143	=143	=143	=143
*ped	*	*	*	*
8E#X/L 8B 8d#X 8e#X	.	4.ee#X\ 4.bb 4.ddd#X 4.eee#X	.	.
8FF#X^^</ 8F#X	.	.	.	.
8BB^^</	.	.	.	.
8FFFn^^</J 8FFn	.	8ff#X\ 8bb 8ddd# 8fff#X	.	.
=144	=144	=144	=144	=144
*ped	*	*8va	*	*
*^	*	*	*	*
2F-X/ 2A-X 2B-X 2d-X 2f-X	8r	.	2aa-X\ 2bb-X 2ddd-X 2eee-X 2aaa-X	.	.
.	8FF-X^^>\L 8F-	.	.	.	.
.	8BBB-X^^>\ 8BB-X	.	.	.	.
.	8EEE-X^^>\J 8EE-X	.	.	.	.
*v	*v	*	*	*	*
*	*	*X8va	*	*
!!LO:LB:g=original	!	!	!	!
=145	=145	=145	=145	=145
*ped	*	*8va	*	*
!	!	!LO:TX:b:i:t=con tutta forza	!	!
8DDD-X/L 8DD-X	.	4bb-X\ 4ddd-X 4fff-X 4aaa-X 4bbb-X	.	.
8AAA-X/J	.	.	.	.
*	*	*X8va	*	*
8DD-X/L 8D-X	.	4b-y\ 4dd-y 4ff-y 4aa-y 4bb-	.	.
8AA-X/J	.	.	.	.
=146	=146	=146	=146	=146
*	*	*8va	*	*
8D-X\L 8d-X	.	4bb-X\ 4ddd-X 4fff-X 4aaa-X 4bbb-X	.	.
8A-X\	.	.	.	.
8BB\ 8B	.	4bbn\ 4ddd-X 4fffn 4aaa-X 4bbbn	.	.
8Fn\J	.	.	.	.
=147	=147	=147	=147	=147
*ped	*	*	*	*
8DDD-X/L 8DD-X	.	4bb-X\ 4ddd-X 4fff-X 4aaa-X 4bbb-X	.	.
8AAA-X/J	.	.	.	.
*	*	*X8va	*	*
8DD-X/L 8D-X	.	4b-y\ 4dd-y 4ff-y 4aa-y 4bb-	.	.
8AA-X/J	.	.	.	.
=148	=148	=148	=148	=148
*	*	*8va	*	*
8D-X\L 8d-X	.	4bb-X\ 4ddd-X 4fff-X 4aaa-X 4bbb-X	.	.
8A-X\J	.	.	.	.
8BB\L 8B	.	4bbn\ 4ddd-X 4fffn 4aaa-X 4bbbn	.	.
8Fn\J	.	.	.	.
*Xped	*	*	*	*
=149	=149	=149	=149	=149
*ped	*	*	*	*
8GGG/L 8GG	.	(4ccc#X\ [4fff [<4bbb 4cccc#X	.	.
(8B/	.	.	.	.
8F/	.	4ddd\) 4fff] 4bbb] 4dddd	.	.
8D/J)	.	.	.	.
*Xped	*	*X8va	*	*
=150	=150	=150	=150	=150
*^	*	*	*	*
*ped	*	*	*	*	*
!	!	!	!	!	!LO:HP:t=diminuendo
2GG#X/	8GG#\L	.	8r	.	>
.	(>8B\	.	(4ccc#X\	3	.
.	8F#X\	.	.	.	.
.	8D\J)	.	[8cccn\	.	.
*v	*v	*	*	*	*
!!LO:LB:g=original	!	!	!	!
=151	=151	=151	=151	=151
(8dd>\L	.	8ccc/]	.	.
8b>\	.	4bb/	.	.
8f#X>\	.	.	.	.
8d>\J)	.	8bb-X/)	.	.
=152	=152	=152	=152	=152
*ped	*	*	*	*
8AAA/L 8AA	.	(4g#X\ 4dd 4ff#X 4gg#X	.	f
8d/	.	.	.	.
8A/	.	4a\) 4dd 4ff# 4aa	.	.
8F#X/J	.	.	.	.
=153	=153	=153	=153	=153
*^	*	*	*	*
*ped	*	*	*	*	*
!	!	!	!	!	!LO:HP:t=diminuendo
2BB-X/	(>8BB-\L	.	8r	.	>
.	8d\	.	(4ggn\	4	.
.	8A-X\	.	.	.	.
.	8Fn\J	.	[8ffn\	.	.
*v	*v	*	*	*	*
=154	=154	=154	=154	=154
8a-X\L	.	8ff\]	.	.
8d\	.	4ee\	.	.
8B-X\	.	.	.	.
8F\J)	.	8dd\)	.	.
=155	=155	=155	=155	=155
*^	*	*	*	*
*ped	*	*	*	*	*
!	!	!	!	!	!LO:HP:t=diminuendo
4C#X/	(>8C#\L	.	8r	.	>
.	8d\	.	(4cc#X^\	.	.
4ryy	8B\	.	.	.	.
.	8E#X\J) 8e#X	.	[8b#X\)	.	.
*Xped	*	*	*	*	*
=156	=156	=156	=156	=156	=156
*ped	*	*	*	*	*
4C#X/	(>8C#\L	.	8b#\]	.	.
.	8d\	.	(4cc#X^\	.	.
4ryy	8B\	.	.	.	.
.	8E#X\J) 8e#X	.	8ccn\)	.	.
*Xped	*	*	*	*	*
*v	*v	*	*	*	*
!!LO:LB:g=original	!	!	!	!
=157	=157	=157	=157	=157
*ped	*	*	*	*
8GGG\L	.	(>[2c-X/ [>2d-X [>2f-X [2a-X [2cc-X	.	p
(8A-X\	.	.	.	.
8D-X\	.	.	.	.
8AA-X\J)	.	.	.	.
=158	=158	=158	=158	=158
(8DD-X\L	.	4c-/] 4d-] 4f-] 4a-] 4cc-]	.	.
*Xped	*	*	*	*
8A-X\	.	.	.	.
*ped	*	*	*	*
8F#X\	.	4cn/) 4e-X 4f#X 4an 4ccn	.	.
8AAn\J)	.	.	.	.
*Xped	*	*clefF4	*	*
=159	=159	=159	=159	=159
*ped	*	*	*	*
!	!	!LO:TX:b:i:t=rit	!	!
(8DDD-X/L	.	([2C-X\ [>2D-X [2F-X [2A-X [2c-X	.	pp
8AA-X/	.	.	.	.
8DD-X/	.	.	.	.
8AAA-X/J)	.	.	.	.
=160	=160	=160	=160	=160
*^	*	*	*	*
*Xped	*	*	*	*	*
(8DDD-X/L	4ryy	.	4C-\] 4D-] 4F-] 4A-] 4c-]	.	.
*ped	*	*	*	*	*
8AA-X/	.	.	.	.	.
8FF#X/	4FF#\	.	4Cn\) 4E-X 4F#X 4An 4cn	.	.
8AAAn/J)	.	.	.	.	.
*Xped	*	*	*	*	*
*v	*v	*	*	*	*
=161	=161	=161	=161	=161
!	!	!	!	!LO:DY:b
!	!	!LO:TX:b:i:t=rall.	!	!LO:HP:b
4r	.	[2AA</ [2D< [2F#X<	.	pp >
[4BBBB\ [4BBB	.	.	.	.
=162	=162	=162	=162	=162
4BBBB\] 4BBB]	.	2AA</] 2D<] 2F#<]	.	]]
4BBBB\ 4BBB	.	.	.	.
*	*	*clefG2	*	*
!!LO:PB:g=original	!	!	!	!
=163||	=163||	=163||	=163||	=163||
*k[b-e-a-d-g-c-]	*	*k[b-e-a-d-g-c-]	*	*
*	*	*	*below	*
!LO:TX:i:b:t=con Pedale	!	!LO:TX:a:B:t=Tempo I.|o	!	!LO:DY:b
8r	.	4E-<~/ 4G-<	3 1	p <
4EEE-\ 4BBB- 4EE-	.	.	.	.
.	.	4F<~/ 4A-<	4 2	.
[8BBB-\ [8EE- [8BB-	.	.	.	.
=164	=164	=164	=164	=164
8BBB-\] 8EE-] 8BB-]	.	4G-<~/ 4B-<	3 1	.
4EEE-\ 4BBB- 4EE-	.	.	.	.
.	.	4A-<~/ 4c-<	4 2	.
[8BBB-\ [8EE- [8BB-	.	.	.	.
=165	=165	=165	=165	=165
8BBB-\] 8EE-] 8BB-]	.	4B-<~/ 4d-<	3 1	.
4EEE-\ 4BBB- 4EE-	.	.	.	.
.	.	4c-<~/ 4e-<	4 2	.
[8BBB-\ [8EE- [8BB-	.	.	.	.
=166	=166	=166	=166	=166
8BBB-/] 8EE-] 8BB-]	.	4F~/ 4c- 4e- 4f	.	.
4EEE-/ 4BBB- 4EE-	.	.	.	.
.	.	4G-~/ 4B- 4e- 4g-	.	[[
8BBB-/ 8EE- 8BB-	.	.	.	.
=167	=167	=167	=167	=167
8r	.	(>4A-/ 4c- 4e- 4a-	.	>
4EEE-/ 4AAA- 4EE-	.	.	.	.
.	.	4F/) 4c- 4e- 4f	.	]]
[8EE-/ [8AA- [8E-	.	.	.	.
=168	=168	=168	=168	=168
8EE-/] 8AA-] 8E-]	.	(>4B-/ 4f 4a- 4b-	.	>
4EEE-/ 4AAA- 4EE-	.	.	.	.
.	.	4G-/) 4B- 4e- 4g-	.	]]
8EE-/ 8AA- 8E-	.	.	.	.
!!LO:LB:g=original	!	!	!	!
=169	=169	=169	=169	=169
8r	.	(>4c-/ 4e- 4b- 4cc-	.	>
4EEE-/ 4AAA- 4EE-	.	.	.	.
.	.	4A-/) 4c- 4e- 4a-	.	]]
[8EE-/ [8AA- [8E-	.	.	.	.
=170	=170	=170	=170	=170
8EE-/] 8AA-] 8E-]	.	(>4e-/ 4a- 4cc- 4ee-	.	>
4EEE-/ 4AAA- 4EE-	.	.	.	.
.	.	4B-/) 4e- 4g- 4b-	.	]]
8EE-/ 8AA- 8E-	.	.	.	.
=171	=171	=171	=171	=171
!	!	!LO:TX:b:i:t=legato possibile	!	!
8r	.	(>4en/ 4g#X 4bn 4een	.	.
4EEEn/ 4EEn	.	.	.	.
.	.	4d#X/ 4f#X 4b 4dd#X	.	p
[8BBBn/ [8BBn	.	.	.	.
=172	=172	=172	=172	=172
8BBB/] 8BB]	.	(4c##X/) 4e#X 4a#X 4cc##X	.	.
4GGGn/ 4GGn	.	.	.	.
.	.	4d#X/ 4f#X 4bn 4dd#X	.	.
[8BBBn/ [8BBn	.	.	.	.
=173	=173	=173	=173	=173
8BBB/] 8BB]	.	4en/ 4g#X 4bn 4een	.	.
4EEn/ 4En	.	.	.	.
.	.	4f#X\ 4an 4dd#X 4ff#X	.	.
[8BBn\ [8Bn	.	.	.	.
!!LO:LB:g=original	!	!	!	!
=174	=174	=174	=174	=174
8BB\] 8B]	.	4c##X/ 4e#X 4a#X 4cc##X	.	<
4GGn/ 4Gn	.	.	.	.
.	.	4d#X/) 4f#X 4bn 4dd#X	.	[[
8BBBn/ 8BBn	.	.	.	.
=175	=175	=175	=175	=175
8r	.	(4g-\ 4b-X 4ee- 4gg-	.	>
4EEE-/ 4EE-	.	.	.	.
.	.	4f-X\ 4a- 4cc- 4ff-X	.	]]
[8FFF-X/ [8FF-X	.	.	.	.
=176	=176	=176	=176	=176
8FFF-/] 8FF-]	.	(>4e-/) 4g- 4b- 4ee-	.	.
4GGG-/ 4GG-	.	.	.	.
.	.	4d-/ 4f-X 4a- 4dd-	.	.
[8AAA-/ [8AA-	.	.	.	.
=177	=177	=177	=177	=177
8AAA-/] 8AA-]	.	4B-/ 4d- 4g- 4b-	.	.
4BBB-/ 4BB-	.	.	.	.
.	.	4A-/ 4c- 4e- 4a-	.	.
[8CC-/ [8C-	.	.	.	.
=178	=178	=178	=178	=178
8CC-/] 8C-]	.	4c-X/ 4f 4a- 4cc-X	.	.
4DD-/ 4D-	.	.	.	.
.	.	4B-/) 4e- 4gn 4b-	.	.
8EE-/ 8E-	.	.	.	.
!!LO:LB:g=original	!	!	!	!
=179	=179	=179	=179	=179
*^	*	*	*	*
*	*	*	*	*	*^
!	!LO:TX:b:i:t=sempre molto Pedale!	!	!LO:TX:b:t=poco_a poco cre_scen_do:dur=3h4q:ext=ud:problem:text with extention lines 	!	!LO:HP:a	!LO:HP:b:t=poco_a poco_cre_scen_do
4A-~/	8F-X\	.	(>[2e-/ [2a- [2ee-	.	>	<
.	4F-\	.	.	.	.	.
4Gn~/ 4B-	.	.	.	.	.	.
.	[8F-\	.	.	.	.	.
=180	=180	=180	=180	=180	=180	=180
4A-/ 4c-	8F-\]	.	4e-/] 4a-] 4ee-]	.	.	.
.	4F-X\	.	.	.	.	.
!	!	!	!LO:TX:b:i:t=poco	!	!	!
4B-/ 4d-	.	.	4f-X/) 4gn 4dd-	.	]	.
.	[8F-\	.	.	.	.	.
*	*	*	*	*	*v	*v
=181	=181	=181	=181	=181	=181
*	*	*	*^	*	*
!LO:TX:a:i:t=m g	!	!	!	!	!	!LO:HP:a
4c->\ 4e->	8F-\]	.	([2b-/ [2ee- [2bb-	4ryy	.	>
.	4E-\	.	.	.	.	.
4d->\ 4fn>	.	.	.	4ryy	.	.
.	[<8E-\	.	.	.	.	.
*	*	*	*v	*v	*	*
=182	=182	=182	=182	=182	=182
4e->\ 4gn>	8E-\]	.	4b-/] 4ee-] 4bb-]	.	]]
.	4E-\	.	.	.	.
4f-X>\ 4a->	.	.	4cc-X/) 4ee-- 4aa-	.	[
.	8E-\	.	.	.	.
=183	=183	=183	=183	=183	=183
!	!	!	!	!	!LO:HP:a
4D-/	8D-\L	.	([>2cc-X\ [>2ff-X [2aa- [2ccc-X	.	>
.	8DD-\	.	.	.	.
4E-/	8E-\	.	.	.	.
.	8EE-\J	.	.	.	.
!!LO:LB:g=original	!	!	!	!	!
=184	=184	=184	=184	=184	=184
!	!	!	!LO:TX:t=P:problem: w t. 183 ligatura od góry, w t. 184 od dołu	!	!
4F-X~/	8F-\L	.	4cc-\] 4ff-] 4aa-] 4ccc-]	.	.
.	8FF-X\	.	.	.	.
4G-~/	8G-\	.	4b-\) 4dd- 4gg- 4bb-	.	.
.	8GG-\J	.	.	.	]]
=185	=185	=185	=185	=185	=185
!	!	!	!	!	!LO:HP:a
4A-~/	8A-\L	.	([2ee-\ [2aa- [2ccc- [2eee-	.	>
.	8AA-\	.	.	.	.
4B-~/	8B-\	.	.	.	.
.	8BB-\J	.	.	.	.
=186	=186	=186	=186	=186	=186
4c-~/	8c-\L	.	4ee-\] 4aa-] 4ccc-] 4eee-]	.	.
.	8C-\	.	.	.	.
4d-~/	8d-\	.	4dd-\) 4ff-X 4aa- 4ddd-	.	]
.	8D-\J	.	.	.	.
=187	=187	=187	=187	=187	=187
[2E-^^/ [2A- [2c- [2e-	8r	.	[2gg-^^\ [2ccc- [2eee- [2ggg-	.	ff <
.	4EE-^\ 4E-	.	.	.	.
.	[8DD-^\ [8D-	.	.	.	.
=188	=188	=188	=188	=188	=188
4E-/] 4A-] 4c-] 4e-]	8DD-\] 8D-]	.	4gg-\] 4ccc-] 4eee-] 4ggg-]	.	.
.	4CC-^\ 4C-	.	.	.	.
4F^^/ 4c- 4e- 4f	.	.	4ff^^\ 4ccc- 4eee- 4fff	.	.
.	[8BBB-^\ [8BB-	.	.	.	.
=189	=189	=189	=189	=189	=189
[2E-/ [2A- [2c- [2e-	8BBB-\] 8BB-]	.	[2gg-^^\ [2ccc- [2eee- [2ggg-	.	.
.	4AAA-^\ 4AA-	.	.	.	.
.	[8GGG-^\ [8GG-	.	.	.	.
!!LO:PB:g=original	!	!	!	!	!
=190	=190	=190	=190	=190	=190
4E-/] 4A-] 4c-] 4e-]	8GGG-\] 8GG-]	.	4gg-\] 4ccc-] 4eee-] 4ggg-]	.	.
.	4FFF^\ 4FF	.	.	.	.
4E-^^/ 4A- 4c- 4e-	.	.	4aa-^^\ 4ccc- 4eee- 4aaa-	.	[[
.	8FFF-X^\ 8FF-X	.	.	.	.
*v	*v	*	*	*	*
=191	=191	=191	=191	=191
!	!	!LO:TX:b:i:t=poco allargando con forza possibile	!	!
(8EEE-^/L 8EE-	.	4bb-^^\ 4eee- 4ggg- 4bbb-	.	.
8BBB-/	.	.	.	.
*	*	*clefF4	*above	*
8BBB-/ 8BB-	.	4F~\ 4A-	2 4	.
8EE-/J)	.	.	.	.
=192	=192	=192	=192	=192
(8EEE-/L 8EE-	.	4G-~\ 4B-	1 3	.
8BBB-/	.	.	.	.
8BBB-/ 8BB-	.	4A-~\ 4c-	2 4	.
8EE-/J)	.	.	.	.
*	*	*clefG2	*	*
=193	=193	=193	=193	=193
(8EEE-/L 8EE-	.	4B-~>/ 4d-	1 3	.
8BBB-/	.	.	.	.
8BBB-/ 8BB-	.	4c-~>/ 4e-	2 4	.
8EE-/J)	.	.	.	.
=194	=194	=194	=194	=194
(8EEE-/L 8EE-	.	4F~>/ 4c- 4e- 4f	.	.
8BBB-/	.	.	.	.
8BBB-/ 8BB-	.	4G-~>/ 4B- 4e- 4g-	.	.
8EE-/J)	.	.	.	.
!!LO:LB:g=original	!	!	!	!
=195	=195	=195	=195	=195
*	*	*^	*	*
!	!	!LO:TX:b:i:t=m.d.	!	!	!
8EEE-\L 8EE-	.	(>[2c-^>/ [2e- [2a-	4A-</	.	.
8AAA-\	.	.	.	.	.
8EE-\ 8E-	.	.	[4G-<^^/	.	.
8AA-\J	.	.	.	.	.
=196	=196	=196	=196	=196	=196
8EEE-\L 8EE-	.	4c-/] 4e-] 4a-]	4G-</]	.	.
8AAA-\	.	.	.	.	.
8EE-\ 8E-	.	4c-^>/) 4e- 4f	4F<^^/	.	.
8AA-\J	.	.	.	.	.
=197	=197	=197	=197	=197	=197
8EEE-\L 8EE-	.	(>[2f^>/ [2a- [2b-	4B-</	.	.
8BBB-\	.	.	.	.	.
8EE-\ 8E-	.	.	[4A-<~/	.	.
8BB-\J	.	.	.	.	.
=198	=198	=198	=198	=198	=198
8EEE-\L 8EE-	.	4f/] 4a-] 4b-]	4A-</]	.	.
8BBB-\	.	.	.	.	.
8EE-\ 8E-	.	4B-^>/) 4e- 4g-	4G-<~/	.	.
8BB-\J	.	.	.	.	.
=199	=199	=199	=199	=199	=199
8EEE-\L 8EE-	.	(>[2e-^>/ [2b- [2cc-	4c-</	.	.
8AAA-\	.	.	.	.	.
8EE-\ 8E-	.	.	[4B-<~/	.	.
8AA-\J	.	.	.	.	.
!!LO:LB:g=original	!	!	!	!	!
=200	=200	=200	=200	=200	=200
8EEE-\L 8EE-	.	4e-/] 4b-] 4cc-]	4B-</]	.	.
8AAA-\	.	.	.	.	.
8EE-\ 8E-	.	4c-/) 4e- 4a-	4A-<~/	.	.
8AA-\J	.	.	.	.	.
*	*	*v	*v	*	*
=201	=201	=201	=201	=201
8EEE-/L 8EE-	.	2e-~>/ 2a- 2cc- 2ee-	.	.
8AAA-/	.	.	.	.
8EE-/ 8E-	.	.	.	.
8AA-/J	.	.	.	.
=202	=202	=202	=202	=202
8EEE-/L 8EE-	.	2B-~>/ 2e- 2g- 2b-	.	.
8BBB-/	.	.	.	.
8EE-/ 8E-	.	.	.	.
8BB-/J	.	.	.	.
=203	=203	=203	=203	=203
!	!	!LO:TX:b:i:t=ancora poco allargando	!	!
(8FFF-X/L 8CC-	.	4f-X\ 4a- 4cc- 4ff-X	.	.
8AA-/J)	.	.	.	.
(8CC-/L 8GG-	.	4e-/ 4g- 4cc- 4ee-	.	.
8E-/J)	.	.	.	.
=204	=204	=204	=204	=204
(8DD-/L 8AA-	.	4d-/ 4f-X 4a- 4dd-	.	.
8F-X/J)	.	.	.	.
(8AA-\L 8E-	.	4c-/ 4e- 4a- 4cc-	.	.
8A-\J)	.	.	.	.
=205	=205	=205	=205	=205
(8DD-/L 8AA-	.	(>[2d-^>/ [2f-X [2a- [2dd-	.	.
8F-X/	.	.	.	.
8AA-/ 8D-	.	.	.	.
8A-/J	.	.	.	.
!!LO:LB:g=original	!	!	!	!
=206	=206	=206	=206	=206
8DD-/L 8AA-	.	4d-/] 4f-] 4a-] 4dd-]	.	.
8F-X/	.	.	.	.
8AA-/ 8E-	.	4c-/) 4e- 4a- 4cc-	.	.
8A-/J)	.	.	.	.
=207	=207	=207	=207	=207
(8DD-/L 8AA-	.	2d-~>/ 2f-X 2a- 2dd-	.	.
8F-X/	.	.	.	.
8AA-/ 8D-	.	.	.	.
8A-/J)	.	.	.	.
=208	=208	=208	=208	=208
(8AAA-/L 8EE-	.	2e-/ 2a- 2cc- 2ee-	.	.
8C-/	.	.	.	.
8EE-/ 8AA-	.	.	.	.
8E-/J)	.	.	.	.
=209	=209	=209	=209	=209
*^	*	*	*	*
!	!	!	!	!	!LO:HP:t=diminuendo poco a poco
(<8EEE-/L	4EEE-\	.	(4b-\ 4ee- 4gg- 4bb-	.	>
8GG-/J)	.	.	.	.	.
(<8FFF-X/L	4FFF-\	.	4a-\ 4cc- 4ff-X 4aa-	.	.
8AA-/J)	.	.	.	.	.
=210	=210	=210	=210	=210	=210
(<8GGG-/L	4GGG-\	.	4g-\ 4b- 4ee- 4gg-	.	.
8BB-/J)	.	.	.	.	.
(<8AAA-/L	4AAA-\	.	4f-X\ 4a- 4cc- 4ff-X	.	.
8C-/J)	.	.	.	.	.
=211	=211	=211	=211	=211	=211
(<8BBB-/L	4BBB-\	.	4e-/ 4gn 4b- 4ee-	.	.
8D-/J)	.	.	.	.	.
(<8CC-/L	4CC-\	.	4e--/ 4g-X 4b-- 4ee--	.	.
8E--/J)	.	.	.	.	.
!!LO:LB:g=original	!	!	!	!	!
=212	=212	=212	=212	=212	=212
(<8DD-/L	4DD-\	.	4d-/ 4f-X 4a- 4dd-	.	>
8F-X/J)	.	.	.	.	.
(<8EE-/L	4EE-\	.	4c-/) 4e- 4g- 4cc-	.	]]
8G-/J)	.	.	.	.	.
=213	=213	=213	=213	=213	=213
*ped	*	*	*	*	*
4FF-X/	(>8FF-\L	.	[<2B-/ [<2dn [<2a- [2b-	.	pp
.	8A-\	.	.	.	.
4ryy	8BB-\	.	.	.	.
.	8A-\J)	.	.	.	.
*v	*v	*	*	*	*
=214	=214	=214	=214	=214
(8FF-X\L	.	2B-/] 2d] 2a-] 2b-]	.	.
8A-\	.	.	.	.
8BB-\	.	.	.	.
8A-\J)	.	.	.	.
*Xped	*	*	*	*
=215	=215	=215	=215	=215
*^	*	*	*	*
*ped	*	*	*	*	*
!	!	!	!	!	!LO:HP:t=crescendo
4C-X\	(8CC-X^/L	.	[2B-/ [2dn [<2a- [2b-	.	<
.	8A-/	.	.	.	.
4ryy	8BB-/	.	.	.	.
.	8A-/J)	.	.	.	.
=216	=216	=216	=216	=216	=216
4BB-\	(8BBB-^/L	.	2B-/] 2d] 2a-] 2b-]	.	<
.	8A-/	.	.	.	.
4ryy	8BB-/	.	.	.	.
.	8A-/J)	.	.	.	.
*kcancel	*kcancel	*	*kcancel	*	*
*v	*v	*	*	*	*
*Xped	*	*	*	*
!!LO:PB:g=original	!	!	!	!
=217||	=217||	=217||	=217||	=217||
*k[b-e-a-]	*	*k[b-e-a-]	*	*
*ped	*	*	*	*
*tuplet	*below	*	*	*
!LO:TUP:a:problem:klamra łukowa	!	!LO:TX:a:B:t=Poco piu lento.	!	!
!LO:TUP:r=4	!	!	!	!
(12EEE-/L	.	2r	.	.
12EE-/	1	.	.	.
12BB-/	4	.	.	.
!LO:TUP:a:problem:klamra łukowa	!	!	!	!
!LO:TUP:r=4	!	!	!	!
12E-/	2	.	.	.
12G/	1	.	.	[
12B-/J)	4	.	.	.
=218	=218	=218	=218	=218
*Xtuplet	*	*	*	*
(12g\L	1	(4ee-\ 4gg 4eee-	.	>
12e-\	2	.	.	.
12B-\	4	.	.	.
12G\	1	4cc\ 4ee- 4ccc	.	.
12E-\	2	.	.	.
12BB-\J	3	.	.	.
=219	=219	=219	=219	=219
*ped	*	*	*	*
12EE-\L)	.	[2b-\) [2dd [2bb-	.	]]
(12g\	2	.	.	.
12f\	1	.	.	.
12d\	2	.	.	.
12B-\	3	.	.	.
12A-\J	4	.	.	.
=220	=220	=220	=220	=220
12F\L	1	8b-\L] 8dd] 8bb-]	.	<
12D\	2	.	.	.
.	.	(8f\ 8ff	.	.
12BB-\J	3	.	.	.
12EE-/L	5	8g\ 8gg	.	.
12BB-/	3	.	.	.
.	.	8a-\J 8aa-	.	.
12F/J)	1	.	.	.
*Xped	*	*	*	*
=221	=221	=221	=221	=221
*ped	*	*	*	*
(12EE-/L	.	8b-\L 8dd-X 8bb-	.	.
12GG/	4	.	.	.
.	.	16cc\L 16ccc	.	[ >
12F-X/J	1	.	.	.
.	.	16b-\JJ 16bb-	.	.
12d-X\L	2	8a-\L 8aa-	.	.
12B-\	3	.	.	.
.	.	8g\J 8gg	.	]]
12F-\J)	5	.	.	.
*Xped	*	*	*	*
!!LO:LB:g=original	!	!	!	!
=222	=222	=222	=222	=222
*	*	*^	*	*
*ped	*	*	*	*	*
(12EE-/L	.	2cc/	8f\L 8ff	.	<
12AA-/	.	.	.	.	.
.	.	.	8g\J 8gg	.	.
12E-/J	1	.	.	.	.
12c\L	2	.	[4a-\) [>4aa-	.	[[
12A-\	.	.	.	.	.
12E-\J)	.	.	.	.	.
=223	=223	=223	=223	=223	=223
*ped	*	*	*	*	*
(12DD/L	.	2bn/	(>8a-\] 8aa-]	.	.
12GG/	.	.	.	.	.
.	.	.	4g\ 4gg	.	.
12D/J	1	.	.	.	.
12Bn\L	2	.	.	.	.
12G\	.	.	.	.	.
.	.	.	8f\ 8ff	.	.
12D\J)	.	.	.	.	.
*	*	*v	*v	*	*
=224	=224	=224	=224	=224
*ped	*	*	*	*
(12CC/L	.	8en\L 8g 8cc 8een	.	.
12GG/	.	.	.	.
.	.	8f\J 8ff	.	.
12C/	1	.	.	.
12En/	4	[4g\) [4gg	.	.
12G/	.	.	.	.
12c/J)	.	.	.	.
=225	=225	=225	=225	=225
*ped	*	*	*	*
(12BBB-/L	.	4g\] 4gg]	.	.
12GG/	.	.	.	.
12C/	1	.	.	.
12En/	4	(4g\ 4gg	.	.
12G/	.	.	.	.
12c/J)	.	.	.	.
=226	=226	=226	=226	=226
*ped	*	*	*	*
(12AAAn/L	.	4an\ 4cc#X 4een 4aan	.	.
12AAn/	1	.	.	.
12C#X/	3	.	.	.
12En/	2	([4en/) [4ee	.	.
12An/	1	.	.	.
12c#X/J	3	.	.	.
!!LO:LB:g=original	!	!	!	!
=227	=227	=227	=227	=227
12en\L	2	8e\L] 8ee]	.	<
12c#X\	3	.	.	.
.	.	8f\ 8ff	.	.
12An\	1	.	.	.
12En\	.	8g\ 8gg	.	.
12C#X\	.	.	.	.
.	.	8an\J 8aan	.	[[
12AAn\J)	.	.	.	.
*Xped	*	*	*	*
=228	=228	=228	=228	=228
12FFF/L 12GG	.	8b-\L 8dd 8aa-X 8bb-	.	.
(12a-\	1	.	.	.
!	!	!LO:TX:a:i:t=stretto	!	!
.	.	8cc\J 8ccc	.	<
12d\J	2	.	.	.
16B-\LL	4	12dd\L 12ddd	.	.
16A-\	1	.	.	.
.	.	12ee-\ 12eee-	.	.
16D\	2	.	.	.
.	.	12ff\J 12fff	.	.
16BB-\JJ)	4	.	.	.
=229	=229	=229	=229	=229
*ped	*	*	*	*
(16EEE-/LL 16EE-	.	4gg-X\) 4ccc-X 4eee- 4aaa-	.	[ ff
16GG-X/	2	.	.	.
16C-X/	1	.	.	.
16E-/JJ	3	.	.	.
12G-X\L	2	4ee-~\ 4gg- 4ccc- 4eee-	.	>
12c-X\	1	.	.	.
12e-\J	3	.	.	.
=230	=230	=230	=230	=230
*ped	*	*	*	*
12gn\L	1	4b-~\ 4ee- 4ggn 4bb-	.	.
12e-\	2	.	.	.
12B-\J	4	.	.	.
12Gn\L	1	[4g~\ [4b- [4ee- [4gg	.	]]
12E-\	2	.	.	.
12BB-\J	3	.	.	.
!!LO:LB:g=original	!	!	!	!
=231	=231	=231	=231	=231
*ped	*	*	*	*
12EE-\L)	.	8g\L] 8b-] 8ee-] 8gg]	.	.
(12e-\	.	.	.	.
.	.	(8g\ 8gg	.	<
12B-\J	.	.	.	.
12G\L	1	8a-\ 8aa-	.	.
12E-\	2	.	.	.
.	.	8b-\J 8bb-	.	.
12BB-\J)	3	.	.	[[
=232	=232	=232	=232	=232
*	*	*^	*	*
*ped	*	*	*	*	*
(12EE-\L	.	(4a-\) 4dd 4ff 4bb-	4ryy	.	<
12f\	1	.	.	.	.
12B-\J	3	.	.	.	.
12F/L	1	4dd:/) 4ff: 4ccc-X:	(8b-:\L	.	.
12BB-/	3	.	.	.	.
.	.	.	8a-\J)	.	[
12EE-/J)	5	.	.	.	.
*Xped	*	*	*	*	*
=233	=233	=233	=233	=233	=233
*ped	*	*	*	*	*
(12EE-\L	.	(4f\ 4bn 4dd 4gg	4ryy	.	<
12e-\	1	.	.	.	.
12A-\J	3	.	.	.	.
12E-/L	1	4b:/) 4dd: 4aa-:	(8g:\L	.	[
12AA-/	3	.	.	.	.
.	.	.	8f\J)	.	.
12EE-/J)	5	.	.	.	.
*Xped	*	*	*	*	*
=234	=234	=234	=234	=234	=234
*ped	*	*	*	*	*
(12EE-\L	.	(4a-\ 4dd 4ff 4bb-	4ryy	.	<
12f\	1	.	.	.	.
12B-\J	3	.	.	.	.
12F/L	1	4dd:/) 4ff: 4ccc-X:	(8b-:\L	.	.
12BB-/	3	.	.	.	.
.	.	.	8a-\J)	.	[
12EE-/J)	5	.	.	.	.
*Xped	*	*	*	*	*
=235	=235	=235	=235	=235	=235
*ped	*	*	*	*	*
(12EE-\L	.	(4f\ 4bn 4dd 4gg	4ryy	.	<
12e-\	1	.	.	.	.
12A-\J	3	.	.	.	.
12E-/L	1	4bn:/) 4dd: 4aa-:	(8g:\L	.	[
12AA-/	3	.	.	.	.
.	.	.	8f\J)	.	.
12EE-/J)	5	.	.	.	.
*Xped	*	*	*	*	*
*	*	*v	*v	*	*
!!LO:LB:g=original	!	!	!	!
=236	=236	=236	=236	=236
*ped	*	*	*	*
!	!	!	!	!LO:HP:t=diminuendo
12EE-\L	.	2c:/ 2f: 2a-: 2ee-:	.	>
(12e-\	1	.	.	.
12c\J	2	.	.	.
12A-\L	3	.	.	.
12E-\	4	.	.	.
12C\J)	5	.	.	.
*Xped	*	*	*	*
=237	=237	=237	=237	=237
*ped	*	*	*	*
12EE-\L	.	2A-:/ 2d: 2f: 2bn:	.	.
(12d\	1	.	.	.
12Bn\J	2	.	.	.
12A-\L	3	.	.	.
12F\	4	.	.	.
12D\J)	5	.	.	.
*Xped	*	*	*	*
=238	=238	=238	=238	=238
*ped	*	*	*	*
4r	.	2F:/ 2Bn: 2d: 2a-:	.	.
[4EEE-/ [4EE-	.	.	.	.
*Xped	*	*	*	*
=239	=239	=239	=239	=239
2EEE-/] 2EE-]	.	2r;	.	.
=240	=240	=240	=240	=240
*^	*	*	*	*
*ped	*	*	*	*	*
(4E-~/	[2EE-\	.	[2G/ [2B- [2e- [2g	.	pp
4C~/	.	.	.	.	.
=241	=241	=241	=241	=241	=241
2BB-~/)	2EE-\]	.	2G/] 2B-] 2e-] 2g]	.	.
*Xped	*	*	*	*	*
*v	*v	*	*	*	*
==	==	==	==	==
*-	*-	*-	*-	*-
!!!system-decoration: {(s1,s2)}
!!!RDF**kern: > = above
!!!RDF**kern: < = below
!!!RDF**kern: N = linked
!!!RDF**kern: NN = linked
!!!ENC: Filip Voros
!!!END: 2023-10-14
!!!EED: Jan Barakat
!!!EEV: 2023-11-08
